assets/badgeFlash.svg

<svg width="50" height="51" viewBox="0 0 50 51" fill="none" xmlns="http://www.w3.org/2000/svg">
<rect y="0.723633" width="50" height="50" rx="25" fill="#E8F2EE"/>
<path d="M26.1665 22.2236H35.4998L23.8332 39.7236V29.2236H15.6665L26.1665 11.7236V22.2236ZM23.8332 24.557V20.147L19.7872 26.8903H26.1665V32.0166L31.14 24.557H23.8332Z" fill="#5BB5A2"/>
</svg>

<svg xmlns="http://www.w3.org/2000/svg" width="50" height="51" fill="none"><rect width="50" height="50" y=".724" fill="#E8F2EE" rx="25"/><path fill="#5BB5A2" d="M26.166 22.224H35.5l-11.667 17.5v-10.5h-8.166l10.5-17.5v10.5Zm-2.333 2.333v-4.41l-4.046 6.743h6.38v5.127l4.973-7.46h-7.307Z"/></svg>
